X:72
T: Bei da Lind'n bin i g'sessn,
N: D0076
O: Europa, Mitteleuropa, Oesterreich, Steiermark
N: Inzipit = Transposition zum Lied
R: Liebes - Lied
M: 3/4
L: 1/16
K: F
C2A2 | A4G4C2B2 | B4A4
C2A2 | A4G4C2B2 | B4A4
A4 | B2d2d4c2B2 | B3Af2c2
A2c2 | c4B4B4 | A4z4
A4 | B2d2d4c2B2 | B3Af2c2
A2c2 | e4B4B4 | A4z4

